v2/src/assets/icones/icon__bag.svg

<svg width="34" height="39" viewBox="0 0 34 39" fill="none" xmlns="http://www.w3.org/2000/svg">
<path d="M26.8679 12.3013V9.92627C26.8679 4.68791 22.6062 0.42627 17.3679 0.42627C12.1296 0.42627 7.86792 4.68791 7.86792 9.92627V12.3013H0.74292V32.4888C0.74292 35.768 3.40121 38.4263 6.68042 38.4263H28.0554C31.3346 38.4263 33.9929 35.768 33.9929 32.4888V12.3013H26.8679ZM12.6179 9.92627C12.6179 7.30709 14.7487 5.17627 17.3679 5.17627C19.9871 5.17627 22.1179 7.30709 22.1179 9.92627V12.3013H12.6179V9.92627ZM24.4929 18.8325C23.5092 18.8325 22.7117 18.035 22.7117 17.0513C22.7117 16.0675 23.5092 15.27 24.4929 15.27C25.4767 15.27 26.2742 16.0675 26.2742 17.0513C26.2742 18.035 25.4767 18.8325 24.4929 18.8325ZM10.2429 18.8325C9.25915 18.8325 8.46167 18.035 8.46167 17.0513C8.46167 16.0675 9.25915 15.27 10.2429 15.27C11.2267 15.27 12.0242 16.0675 12.0242 17.0513C12.0242 18.035 11.2267 18.8325 10.2429 18.8325Z" fill="black"/>
</svg>

<?xml version="1.0" encoding="utf-8"?>
<!-- Generator: Adobe Illustrator 26.3.1, SVG Export Plug-In . SVG Version: 6.00 Build 0)  -->
<svg version="1.1" id="Camada_1" xmlns="http://www.w3.org/2000/svg" xmlns:xlink="http://www.w3.org/1999/xlink" x="0px" y="0px"
	 viewBox="0 0 34 39" style="enable-background:new 0 0 34 39;" xml:space="preserve">
<style type="text/css">
	.st0{fill:#391741;}
</style>
<path class="st0" d="M26.9,12.3V9.9c0-5.2-4.3-9.5-9.5-9.5S7.9,4.7,7.9,9.9v2.4H0.7v20.2c0,3.3,2.7,5.9,5.9,5.9h21.4
	c3.3,0,5.9-2.7,5.9-5.9V12.3H26.9z M12.6,9.9c0-2.6,2.1-4.7,4.8-4.7s4.8,2.1,4.8,4.7v2.4h-9.5V9.9z M24.5,18.8c-1,0-1.8-0.8-1.8-1.8
	c0-1,0.8-1.8,1.8-1.8c1,0,1.8,0.8,1.8,1.8C26.3,18,25.5,18.8,24.5,18.8z M10.2,18.8c-1,0-1.8-0.8-1.8-1.8c0-1,0.8-1.8,1.8-1.8
	c1,0,1.8,0.8,1.8,1.8C12,18,11.2,18.8,10.2,18.8z"/>
</svg>
